X:1
T:Dichterliebe, Op.48
T:Wenn ich in deine Augen seh'
T:4. Wenn ich in deine Augen seh'
T:Robert Schumann
T:Dichterliebe, Op.48
T:Heinrich Heine
T:OpenScore (CC0)
T:OpenScore (CC0)
C:Robert Schumann
Z:Heinrich Heine
Z:OpenScore (CC0)
%%score ( 1 2 ) { ( 3 5 8 9 ) | ( 4 6 7 ) }
L:1/8
Q:1/4=80
M:3/4
K:G
V:1 treble nm="Voice"
V:2 treble 
V:3 treble nm="Piano"
V:5 treble 
V:8 treble 
V:9 treble 
V:4 bass 
V:6 bass 
V:7 bass 
V:1
"^Langsam." z!p! B B B B3/2 B/ | d3/2 B/ B2 z G | G3/2 G/ G G c c | A2 z2 z c | %4
w: Wenn ich in dei- ne|Au- gen seh', so|schwin- det all' mein Leid und|Weh; doch|
 c3/2 c/ c c!<(! (ed/) c/!<)! | =f3 f e d | g3/2 =f/ e3 d | c2 z2 A2 | B3/2 B/ B3/2 F/ G A | %9
w: wenn ich küs- se dei- * nen|Mund, so werd' ich|ganz und gar ge-|sund. Wenn|ich mich lehn' an dei- ne|
 G2 z2 c2 | B3/2 F/ F F (F/G) A/ | G2 z G G G | ^G4 z G[Q:1/4=78] | %13
w: Brust, kommt's|ü- ber mich wie Him- * mels-|lust; doch wenn du|sprichst: "Ich|
"^ritard."[Q:1/4=76] B3/2 A/ A c B A | G A B3 A | G2 z2 z2 | z6[Q:1/4=74] |[Q:1/4=72] z6 | %18
w: lie- be dich!" so muss ich|wei- nen bit- ter-|lich.|||
[Q:1/4=70] z6[Q:1/4=67] |[Q:1/4=64] z6[Q:1/4=62] | z6 |] %21
w: |||
V:2
 x6 | x6 | x6 | x6 | x6 | x6 | c3/2 d/ x4 | x6 | x6 | x6 | x6 | x6 | x6 | x6 | x6 | x6 | x6 | x6 | %18
 x6 | x6 | x6 |] %21
V:3
!p! [B,GB]6- | [B,GB][B,GB]!<(![B,GB][B,GB]!<)!!>(![DGd]>[EG]!>)! | [EG]2 z2 [EAc] z | %3
 [DFA] z/ [EAc]/!<(! [EAc][EAc][EAc]!<)![EAc] | ([EAe]2 [EAc]2)!<(! [Gce]2!<)! | %5
 [=Fc=f]3 [Fcf][Gce][Acd] |!f! [Gcg]>[Ac=f]!>(! e3!>)! d | [Ec] z/ [Ge]/ (g2 a2) |!ped! b6- | %9
 b2!ped-up!!<(! (g2 c'2)!<)! |!>(! b6-!>)! | [Bd]>[Beg] [Beg](.[Beg].[Beg].[Beg]) | [^G^g]6 | %13
 ([Bb]2 [Aa])!<(! (.[Ae].[^Ge]!<)!.[Ae]) | e2!>(! d4-!>)! | %15
 [Gd] z/!p! (.[=FGd]/ .[FGd].[FGd].[FGd].[FGd]) | (d2"^rit." G3 c) | %17
 [DB] z/!pp! (.[D=FG]/.[DFG].[DFG].[DFG].[DFG]) |"^ritard." [EG-]6 | G6- | G6 |] %21
V:4
 [G,D]6- | [G,D][G,D][G,D][G,D][B,D]>[E,B,] | [E,B,]2 z2 [A,,A,] z | %3
 D, z/ [A,C]/ [A,C][A,C][A,C][A,C] | C2- [A,C]2 [_B,CE]2 | [A,C]3 [A,C-][G,C][=F,C] | %6
 [E,C]>[=F,C] (C2 =B,2) | [C,G,] z/[K:treble] [CE]/ [CE][CE][CE][CE] | [B,^F]6- | %9
 [B,F]>[EG] [EG][EG][A,EA][A,EA] | [B,^DFA]6- | [B,DFA]>[EG] [EG](.[EG].[EG].[EG]) | B6 | %13
 [CE]2- [CE][K:bass] (.[A,C].[B,D].[CE]) | [^CE]2 D2- D=C | %15
 B, z/ (.[B,,G,]/ .[B,,G,].[B,,G,].[B,,G,].[B,,G,]) | [C,G,-]6 | %17
 [G,,G,] z/ (.[B,,G,]/.[B,,G,].[B,,G,].[B,,G,].[B,,G,]) | G,6- | G,6 | G,6 |] %21
V:5
 x6 | x6 | x6 | x6 | x6 | x6 | x2 [Gc]2 [=FG]2 | x x/ x/ [Ge]!<(![Ge][Ae][Ae]!<)! | [B^d]6- | %9
 [Bd]>[Be] [Be][Be][ce][ce] | [B^d]6- | b3 x3 | z"^ritard." (=fdB[I:staff +1]^G=F) | %13
[I:staff -1] e3 x3 | [=GA]2 G2 ^F2 | x6 | E6 | x6 | (D2 G,3 C) | B,>B,B,B,B,B,- | B,6 |] %21
V:6
 x6 | x6 | x6 | x6 | x6 | x6 | x2 G,4 | x3/2[K:treble] x9/2 | x6 | x6 | x6 | x6 | D6 | %13
 x3[K:bass] x3 | x4 D,2 | G, x/ x9/2 | x6 | G,,6 | [G,,-C,]6 | %19
 [G,,D,]>[G,,D,][G,,D,][G,,D,][G,,D,][G,,D,]- | [G,,B,,D,]6 |] %21
V:7
 x6 | x6 | x6 | x6 | x6 | x6 | x6 | x3/2[K:treble] x9/2 | x6 | x6 | x6 | x6 | =F4 x2 | %13
 x3[K:bass] x3 | x6 | x6 | x6 | x6 | x6 | x6 | x6 |] %21
V:8
 x6 | x6 | x6 | x6 | x6 | x6 | x6 | x6 | x6 | x6 | x6 | x6 | x6 | x6 | x2 B3 A | x6 | x6 | x6 | %18
 x6 | x6 | x6 |] %21
V:9
 x6 | x6 | x6 | x6 | x6 | x6 | x6 | x6 | x6 | x6 | x6 | x6 | x6 | x6 | x6 | x6 | G2- G4 | x6 | x6 | %19
 x6 | x6 |] %21

